apps/48/onboard.svg

<?xml version="1.0" encoding="UTF-8" standalone="no"?>
<svg
   xmlns:dc="http://purl.org/dc/elements/1.1/"
   xmlns:cc="http://creativecommons.org/ns#"
   xmlns:rdf="http://www.w3.org/1999/02/22-rdf-syntax-ns#"
   xmlns:svg="http://www.w3.org/2000/svg"
   xmlns="http://www.w3.org/2000/svg"
   xmlns:xlink="http://www.w3.org/1999/xlink"
   version="1.1"
   width="48"
   height="48"
   id="svg4296">
  <defs
     id="defs4298">
    <linearGradient
       id="linearGradient3895">
      <stop
         id="stop3897"
         style="stop-color:#ffffff;stop-opacity:1"
         offset="0" />
      <stop
         id="stop3899"
         style="stop-color:#ffffff;stop-opacity:0.23529412"
         offset="0.05263157" />
      <stop
         id="stop3901"
         style="stop-color:#ffffff;stop-opacity:0.15686275"
         offset="0.95056331" />
      <stop
         id="stop3903"
         style="stop-color:#ffffff;stop-opacity:0.39215687"
         offset="1" />
    </linearGradient>
    <linearGradient
       id="linearGradient3688-166-749">
      <stop
         id="stop2883"
         style="stop-color:#181818;stop-opacity:1"
         offset="0" />
      <stop
         id="stop2885"
         style="stop-color:#181818;stop-opacity:0"
         offset="1" />
    </linearGradient>
    <linearGradient
       id="linearGradient3688-464-309">
      <stop
         id="stop2889"
         style="stop-color:#181818;stop-opacity:1"
         offset="0" />
      <stop
         id="stop2891"
         style="stop-color:#181818;stop-opacity:0"
         offset="1" />
    </linearGradient>
    <linearGradient
       id="linearGradient3702-501-757">
      <stop
         id="stop2895"
         style="stop-color:#181818;stop-opacity:0"
         offset="0" />
      <stop
         id="stop2897"
         style="stop-color:#181818;stop-opacity:1"
         offset="0.5" />
      <stop
         id="stop2899"
         style="stop-color:#181818;stop-opacity:0"
         offset="1" />
    </linearGradient>
    <linearGradient
       x1="23.99999"
       y1="4.9999938"
       x2="23.99999"
       y2="43"
       id="linearGradient3024"
       xlink:href="#linearGradient3895"
       gradientUnits="userSpaceOnUse"
       gradientTransform="translate(50.000004,1.0000062)" />
    <radialGradient
       cx="4.9929786"
       cy="43.5"
       r="2.5"
       fx="4.9929786"
       fy="43.5"
       id="radialGradient3038"
       xlink:href="#linearGradient3688-166-749"
       gradientUnits="userSpaceOnUse"
       gradientTransform="matrix(2.003784,0,0,1.4,27.98813,-17.4)" />
    <radialGradient
       cx="4.9929786"
       cy="43.5"
       r="2.5"
       fx="4.9929786"
       fy="43.5"
       id="radialGradient3040"
       xlink:href="#linearGradient3688-464-309"
       gradientUnits="userSpaceOnUse"
       gradientTransform="matrix(2.003784,0,0,1.4,-20.01187,-104.4)" />
    <linearGradient
       x1="25.058096"
       y1="47.027729"
       x2="25.058096"
       y2="39.999443"
       id="linearGradient3042"
       xlink:href="#linearGradient3702-501-757"
       gradientUnits="userSpaceOnUse" />
    <radialGradient
       cx="7.1183534"
       cy="9.9571075"
       r="12.671875"
       fx="7.1183534"
       fy="9.9571075"
       id="radialGradient3054-6"
       xlink:href="#linearGradient2867-449-88-871-390-598-476-591-434-148-57-177-8-3-3-6-4-8-8-8-5"
       gradientUnits="userSpaceOnUse"
       gradientTransform="matrix(0,9.1402449,-11.221301,0,186.56278,-77.887535)" />
    <linearGradient
       id="linearGradient2867-449-88-871-390-598-476-591-434-148-57-177-8-3-3-6-4-8-8-8-5">
      <stop
         id="stop3750-1-0-7-6-6-1-3-9-3"
         style="stop-color:#919caf;stop-opacity:1;"
         offset="0" />
      <stop
         id="stop3752-3-7-4-0-32-8-923-0-7"
         style="stop-color:#68758e;stop-opacity:1;"
         offset="0.26238" />
      <stop
         id="stop3754-1-8-5-2-7-6-7-1-9"
         style="stop-color:#485a6c;stop-opacity:1;"
         offset="0.704952" />
      <stop
         id="stop3756-1-6-2-6-6-1-96-6-0"
         style="stop-color:#444c5c;stop-opacity:1;"
         offset="1" />
    </linearGradient>
    <linearGradient
       x1="61.041145"
       y1="42.402573"
       x2="61.041145"
       y2="4.3380871"
       id="linearGradient3018-5"
       xlink:href="#linearGradient3680-6-6-6-3-7"
       gradientUnits="userSpaceOnUse"
       gradientTransform="translate(-32.172838,-13.166413)" />
    <linearGradient
       id="linearGradient3680-6-6-6-3-7">
      <stop
         id="stop3682-4-6-1-3-7"
         style="stop-color:#dcdcdc;stop-opacity:1"
         offset="0" />
      <stop
         id="stop3684-8-5-8-0-2"
         style="stop-color:#ffffff;stop-opacity:1"
         offset="1" />
    </linearGradient>
    <linearGradient
       x1="20"
       y1="26.000008"
       x2="20"
       y2="13.000008"
       id="linearGradient3018-5-0"
       xlink:href="#linearGradient3680-6-6-6-3-7-4"
       gradientUnits="userSpaceOnUse"
       gradientTransform="matrix(1,0,0,0.75,-33.981315,9.749994)" />
    <linearGradient
       id="linearGradient3680-6-6-6-3-7-4">
      <stop
         id="stop3682-4-6-1-3-7-0"
         style="stop-color:#dcdcdc;stop-opacity:1"
         offset="0" />
      <stop
         id="stop3684-8-5-8-0-2-5"
         style="stop-color:#ffffff;stop-opacity:1"
         offset="1" />
    </linearGradient>
    <linearGradient
       id="linearGradient3462">
      <stop
         id="stop3464"
         style="stop-color:#ffffff;stop-opacity:1"
         offset="0" />
      <stop
         id="stop3466"
         style="stop-color:#ffffff;stop-opacity:0.23529412"
         offset="0.03457849" />
      <stop
         id="stop3468"
         style="stop-color:#ffffff;stop-opacity:0.15686275"
         offset="0.96375686" />
      <stop
         id="stop3470"
         style="stop-color:#ffffff;stop-opacity:0.39215687"
         offset="1" />
    </linearGradient>
    <linearGradient
       id="linearGradient2867-449-88-871-390-598-476-591-434-148-57-177-8-3-3-6-4-8-8-8-5-7">
      <stop
         offset="0"
         style="stop-color:#505050;stop-opacity:1"
         id="stop3750-1-0-7-6-6-1-3-9-3-9" />
      <stop
         offset="0.26238"
         style="stop-color:#2b2b2b;stop-opacity:1"
         id="stop3752-3-7-4-0-32-8-923-0-7-0" />
      <stop
         offset="0.704952"
         style="stop-color:#0a0a0a;stop-opacity:1"
         id="stop3754-1-8-5-2-7-6-7-1-9-1" />
      <stop
         offset="1"
         style="stop-color:#000000;stop-opacity:1"
         id="stop3756-1-6-2-6-6-1-96-6-0-1" />
    </linearGradient>
    <linearGradient
       gradientTransform="matrix(0.08449704,0,0,0.01235294,-6.5396456,38.470822)"
       gradientUnits="userSpaceOnUse"
       xlink:href="#linearGradient5048"
       id="linearGradient19619"
       y2="609.50507"
       x2="302.85715"
       y1="366.64789"
       x1="302.85715" />
    <linearGradient
       id="linearGradient5048">
      <stop
         offset="0"
         style="stop-color:#000000;stop-opacity:0"
         id="stop5050" />
      <stop
         offset="0.5"
         style="stop-color:#000000;stop-opacity:1"
         id="stop5056" />
      <stop
         offset="1"
         style="stop-color:#000000;stop-opacity:0"
         id="stop5052" />
    </linearGradient>
    <radialGradient
       gradientTransform="matrix(-0.0289166,0,0,0.01235294,21.026894,38.470848)"
       gradientUnits="userSpaceOnUse"
       xlink:href="#linearGradient5060"
       id="radialGradient19616"
       fy="486.64789"
       fx="605.71429"
       r="117.14286"
       cy="486.64789"
       cx="605.71429" />
    <linearGradient
       id="linearGradient5060">
      <stop
         offset="0"
         style="stop-color:#000000;stop-opacity:1"
         id="stop5062" />
      <stop
         offset="1"
         style="stop-color:#000000;stop-opacity:0"
         id="stop5064" />
    </linearGradient>
    <radialGradient
       gradientTransform="matrix(0.02891661,0,0,0.01235294,26.973101,38.470848)"
       gradientUnits="userSpaceOnUse"
       xlink:href="#linearGradient5060"
       id="radialGradient19613"
       fy="486.64789"
       fx="605.71429"
       r="117.14286"
       cy="486.64789"
       cx="605.71429" />
    <linearGradient
       xlink:href="#linearGradient3462"
       id="linearGradient4088"
       gradientUnits="userSpaceOnUse"
       gradientTransform="matrix(1.1621621,0,0,0.91891888,-3.8918941,4.4459492)"
       x1="40.290417"
       y1="5.4143372"
       x2="40.290417"
       y2="42.437775" />
    <radialGradient
       xlink:href="#linearGradient2867-449-88-871-390-598-476-591-434-148-57-177-8-3-3-6-4-8-8-8-5"
       id="radialGradient4091"
       gradientUnits="userSpaceOnUse"
       gradientTransform="matrix(0,8.4371492,-12.947656,0,153.88012,-68.473106)"
       cx="7.1183534"
       cy="9.9571075"
       fx="7.1183534"
       fy="9.9571075"
       r="12.671875" />
    <linearGradient
       xlink:href="#linearGradient3680-6-6-6-3-7-4"
       id="linearGradient4115"
       gradientUnits="userSpaceOnUse"
       gradientTransform="matrix(1,0,0,0.75,-33.981315,8.2499944)"
       x1="59.485085"
       y1="37.291523"
       x2="59.485085"
       y2="1.7410491" />
  </defs>
  <metadata
     id="metadata4301">
    <rdf:RDF>
      <cc:Work
         rdf:about="">
        <dc:format>image/svg+xml</dc:format>
        <dc:type
           rdf:resource="http://purl.org/dc/dcmitype/StillImage" />
        <dc:title />
      </cc:Work>
    </rdf:RDF>
  </metadata>
  <g
     id="g3257"
     style="opacity:0.4">
    <rect
       width="40.799999"
       height="2.9999998"
       x="3.5999999"
       y="43"
       id="rect2879"
       style="fill:url(#linearGradient19619);fill-opacity:1;fill-rule:nonzero;stroke:none;stroke-width:1;marker:none;visibility:visible;display:inline;overflow:visible" />
    <path
       d="m 3.6,43.00013 c 0,0 0,2.999835 0,2.999835 C 2.1108662,46.005612 0,45.327854 0,44.499854 0,43.671856 1.6617608,43.000131 3.6,43.00013 z"
       id="path2881"
       style="fill:url(#radialGradient19616);fill-opacity:1;fill-rule:nonzero;stroke:none;stroke-width:1;marker:none;visibility:visible;display:inline;overflow:visible" />
    <path
       d="m 44.4,43.00013 c 0,0 0,2.999835 0,2.999835 1.489133,0.0056 3.6,-0.672111 3.6,-1.500111 0,-0.827998 -1.661761,-1.499723 -3.6,-1.499724 z"
       id="path2883"
       style="fill:url(#radialGradient19613);fill-opacity:1;fill-rule:nonzero;stroke:none;stroke-width:1;marker:none;visibility:visible;display:inline;overflow:visible" />
  </g>
  <rect
     width="45"
     height="36"
     rx="1.5"
     ry="1.5"
     x="1.4999995"
     y="8.4999981"
     id="rect5505-21-3-8-5-2"
     style="opacity:1;color:#000000;fill:url(#radialGradient4091);fill-opacity:1;fill-rule:nonzero;stroke:none;stroke-width:0.99999994000000003;marker:none;visibility:visible;display:inline;overflow:visible;enable-background:accumulate" />
  <path
     style="opacity:0.07;color:#000000;fill:#000000;fill-opacity:1;fill-rule:nonzero;stroke:none;stroke-width:1;marker:none;visibility:visible;display:inline;overflow:visible;enable-background:accumulate"
     id="path4192"
     d="M 9.90625,17.9375 A 1.0550506,1.0550506 0 0 0 8.9375,19 l 0,3 a 1.0550506,1.0550506 0 0 0 0.75,1 1.0550506,1.0550506 0 0 0 -0.75,1 l 0,3 a 1.0550506,1.0550506 0 0 0 0.75,1 1.0550506,1.0550506 0 0 0 -0.75,1 l 0,3 A 1.0550506,1.0550506 0 0 0 10,33.0625 l 4,0 a 1.0550506,1.0550506 0 0 0 1,-0.75 1.0550506,1.0550506 0 0 0 0.6875,0.6875 1.0550506,1.0550506 0 0 0 -0.75,1 l 0,3 A 1.0550506,1.0550506 0 0 0 16,38.0625 l 16,0 A 1.0550506,1.0550506 0 0 0 33.0625,37 l 0,-3 a 1.0550506,1.0550506 0 0 0 -0.75,-1 1.0550506,1.0550506 0 0 0 0.6875,-0.6875 1.0550506,1.0550506 0 0 0 1,0.75 l 4,0 A 1.0550506,1.0550506 0 0 0 39.0625,32 l 0,-3 a 1.0550506,1.0550506 0 0 0 -0.75,-1 1.0550506,1.0550506 0 0 0 0.75,-1 l 0,-3 a 1.0550506,1.0550506 0 0 0 -0.75,-1 1.0550506,1.0550506 0 0 0 0.75,-1 l 0,-3 A 1.0550506,1.0550506 0 0 0 38,17.9375 l -4,0 a 1.0550506,1.0550506 0 0 0 -1,0.75 1.0550506,1.0550506 0 0 0 -1,-0.75 l -4,0 a 1.0550506,1.0550506 0 0 0 -1,0.75 1.0550506,1.0550506 0 0 0 -1,-0.75 l -4,0 a 1.0550506,1.0550506 0 0 0 -1,0.75 1.0550506,1.0550506 0 0 0 -1,-0.75 l -4,0 a 1.0550506,1.0550506 0 0 0 -1,0.75 1.0550506,1.0550506 0 0 0 -1,-0.75 l -4,0 a 1.0550506,1.0550506 0 0 0 -0.09375,0 z M 15,22.3125 A 1.0550506,1.0550506 0 0 0 15.6875,23 1.0550506,1.0550506 0 0 0 15,23.6875 1.0550506,1.0550506 0 0 0 14.3125,23 1.0550506,1.0550506 0 0 0 15,22.3125 z m 6,0 A 1.0550506,1.0550506 0 0 0 21.6875,23 1.0550506,1.0550506 0 0 0 21,23.6875 1.0550506,1.0550506 0 0 0 20.3125,23 1.0550506,1.0550506 0 0 0 21,22.3125 z m 6,0 A 1.0550506,1.0550506 0 0 0 27.6875,23 1.0550506,1.0550506 0 0 0 27,23.6875 1.0550506,1.0550506 0 0 0 26.3125,23 1.0550506,1.0550506 0 0 0 27,22.3125 z m 6,0 A 1.0550506,1.0550506 0 0 0 33.6875,23 1.0550506,1.0550506 0 0 0 33,23.6875 1.0550506,1.0550506 0 0 0 32.3125,23 1.0550506,1.0550506 0 0 0 33,22.3125 z m -18,5 A 1.0550506,1.0550506 0 0 0 15.6875,28 1.0550506,1.0550506 0 0 0 15,28.6875 1.0550506,1.0550506 0 0 0 14.3125,28 1.0550506,1.0550506 0 0 0 15,27.3125 z m 6,0 A 1.0550506,1.0550506 0 0 0 21.6875,28 1.0550506,1.0550506 0 0 0 21,28.6875 1.0550506,1.0550506 0 0 0 20.3125,28 1.0550506,1.0550506 0 0 0 21,27.3125 z m 6,0 A 1.0550506,1.0550506 0 0 0 27.6875,28 1.0550506,1.0550506 0 0 0 27,28.6875 1.0550506,1.0550506 0 0 0 26.3125,28 1.0550506,1.0550506 0 0 0 27,27.3125 z m 6,0 A 1.0550506,1.0550506 0 0 0 33.6875,28 1.0550506,1.0550506 0 0 0 33,28.6875 1.0550506,1.0550506 0 0 0 32.3125,28 1.0550506,1.0550506 0 0 0 33,27.3125 z m -12,5 a 1.0550506,1.0550506 0 0 0 0.53125,0.625 l -1.03125,0 a 1.0550506,1.0550506 0 0 0 0.5,-0.625 z m 6,0 a 1.0550506,1.0550506 0 0 0 0.53125,0.625 l -1.03125,0 a 1.0550506,1.0550506 0 0 0 0.5,-0.625 z" />
  <rect
     width="43"
     height="34"
     rx="0.75"
     ry="0.75"
     x="2.5"
     y="9.5"
     id="rect6741-5-0-2-3"
     style="opacity:0.3;fill:none;stroke:url(#linearGradient4088);stroke-width:1;stroke-linecap:round;stroke-linejoin:round;stroke-miterlimit:4;stroke-opacity:1;stroke-dasharray:none;stroke-dashoffset:0" />
  <rect
     width="45"
     height="36"
     rx="1.5"
     ry="1.5"
     x="1.4999995"
     y="8.5"
     id="rect5505-21-3-8-9-1-1"
     style="opacity:0.50000000000000000;color:#000000;fill:none;stroke:#1c2c38;stroke-width:1;stroke-linecap:round;stroke-linejoin:round;stroke-miterlimit:4;stroke-opacity:1;stroke-dasharray:none;stroke-dashoffset:0;marker:none;visibility:visible;display:inline;overflow:visible;enable-background:accumulate" />
  <path
     style="color:#000000;fill:#000000;fill-opacity:1;fill-rule:nonzero;stroke:none;stroke-width:1;marker:none;visibility:visible;display:inline;overflow:visible;enable-background:accumulate;opacity:0.15"
     d="m 10,19 0,3 4,0 0,-3 -4,0 z m 6,0 0,3 4,0 0,-3 -4,0 z m 6,0 0,3 4,0 0,-3 -4,0 z m 6,0 0,3 4,0 0,-3 -4,0 z m 6,0 0,3 4,0 0,-3 -4,0 z m -24,5 0,3 4,0 0,-3 -4,0 z m 6,0 0,3 4,0 0,-3 -4,0 z m 6,0 0,3 4,0 0,-3 -4,0 z m 6,0 0,3 4,0 0,-3 -4,0 z m 6,0 0,3 4,0 0,-3 -4,0 z m -24,5 0,3 4,0 0,-3 -4,0 z m 6,0 0,3 4,0 0,-3 -4,0 z m 6,0 0,3 4,0 0,-3 -4,0 z m 6,0 0,3 4,0 0,-3 -4,0 z m 6,0 0,3 4,0 0,-3 -4,0 z m -18,5 0,3 16,0 0,-3 -16,0 z"
     id="rect3834-8" />
  <path
     style="color:#000000;fill:url(#linearGradient4115);fill-opacity:1;fill-rule:nonzero;stroke:none;stroke-width:1;marker:none;visibility:visible;display:inline;overflow:visible;enable-background:accumulate"
     d="M 10 18 L 10 21 L 14 21 L 14 18 L 10 18 z M 16 18 L 16 21 L 20 21 L 20 18 L 16 18 z M 22 18 L 22 21 L 26 21 L 26 18 L 22 18 z M 28 18 L 28 21 L 32 21 L 32 18 L 28 18 z M 34 18 L 34 21 L 38 21 L 38 18 L 34 18 z M 10 23 L 10 26 L 14 26 L 14 23 L 10 23 z M 16 23 L 16 26 L 20 26 L 20 23 L 16 23 z M 22 23 L 22 26 L 26 26 L 26 23 L 22 23 z M 28 23 L 28 26 L 32 26 L 32 23 L 28 23 z M 34 23 L 34 26 L 38 26 L 38 23 L 34 23 z M 10 28 L 10 31 L 14 31 L 14 28 L 10 28 z M 16 28 L 16 31 L 20 31 L 20 28 L 16 28 z M 22 28 L 22 31 L 26 31 L 26 28 L 22 28 z M 28 28 L 28 31 L 32 31 L 32 28 L 28 28 z M 34 28 L 34 31 L 38 31 L 38 28 L 34 28 z M 16 33 L 16 36 L 32 36 L 32 33 L 16 33 z "
     id="rect3834" />
</svg>

<svg xmlns="http://www.w3.org/2000/svg" xmlns:xlink="http://www.w3.org/1999/xlink" viewBox="0 0 48 48"><defs><linearGradient id="d"><stop offset="0" stop-color="#919caf"/><stop offset=".262" stop-color="#68758e"/><stop offset=".705" stop-color="#485a6c"/><stop offset="1" stop-color="#444c5c"/></linearGradient><linearGradient id="e"><stop offset="0" stop-color="#dcdcdc"/><stop offset="1" stop-color="#fff"/></linearGradient><linearGradient id="c"><stop offset="0" stop-color="#fff"/><stop offset=".035" stop-color="#fff" stop-opacity=".235"/><stop offset=".964" stop-color="#fff" stop-opacity=".157"/><stop offset="1" stop-color="#fff" stop-opacity=".392"/></linearGradient><linearGradient gradientTransform="matrix(.0845 0 0 .01235 -6.54 38.47)" gradientUnits="userSpaceOnUse" xlink:href="#a" id="f" y2="609.505" x2="302.857" y1="366.648" x1="302.857"/><linearGradient id="a"><stop offset="0" stop-opacity="0"/><stop offset=".5"/><stop offset="1" stop-opacity="0"/></linearGradient><radialGradient gradientTransform="matrix(-.02892 0 0 .01235 21.027 38.47)" gradientUnits="userSpaceOnUse" xlink:href="#b" id="g" fy="486.648" fx="605.714" r="117.143" cy="486.648" cx="605.714"/><linearGradient id="b"><stop offset="0"/><stop offset="1" stop-opacity="0"/></linearGradient><radialGradient gradientTransform="matrix(.02892 0 0 .01235 26.973 38.47)" gradientUnits="userSpaceOnUse" xlink:href="#b" id="h" fy="486.648" fx="605.714" r="117.143" cy="486.648" cx="605.714"/><linearGradient xlink:href="#c" id="j" gradientUnits="userSpaceOnUse" gradientTransform="matrix(1.16216 0 0 .91892 -3.892 4.446)" x1="40.29" y1="5.414" x2="40.29" y2="42.438"/><radialGradient xlink:href="#d" id="i" gradientUnits="userSpaceOnUse" gradientTransform="scale(12.94766 8.43715) rotate(90 10 1.885)" cx="7.118" cy="9.957" fx="7.118" fy="9.957" r="12.672"/><linearGradient xlink:href="#e" id="k" gradientUnits="userSpaceOnUse" gradientTransform="matrix(1 0 0 .75 -33.98 8.25)" x1="59.485" y1="37.292" x2="59.485" y2="1.741"/></defs><g opacity=".4"><path fill="url(#f)" overflow="visible" d="M3.6 43h40.8v3H3.6z"/><path d="M3.6 43v3c-1.49.006-3.6-.672-3.6-1.5S1.662 43 3.6 43z" fill="url(#g)" overflow="visible"/><path d="M44.4 43v3c1.49.006 3.6-.672 3.6-1.5S46.338 43 44.4 43z" fill="url(#h)" overflow="visible"/></g><rect width="45" height="36" rx="1.5" ry="1.5" x="1.5" y="8.5" color="#000" fill="url(#i)" overflow="visible"/><path d="M9.906 17.938A1.055 1.055 0 0 0 8.936 19l.002 3a1.055 1.055 0 0 0 .75 1 1.055 1.055 0 0 0-.75 1v3a1.055 1.055 0 0 0 .75 1 1.055 1.055 0 0 0-.75 1v3A1.055 1.055 0 0 0 10 33.063h4a1.055 1.055 0 0 0 1-.75 1.055 1.055 0 0 0 .688.687 1.055 1.055 0 0 0-.75 1v3A1.055 1.055 0 0 0 16 38.063h16A1.055 1.055 0 0 0 33.063 37v-3a1.055 1.055 0 0 0-.75-1 1.055 1.055 0 0 0 .687-.688 1.055 1.055 0 0 0 1 .75h4A1.055 1.055 0 0 0 39.063 32v-3a1.055 1.055 0 0 0-.75-1 1.055 1.055 0 0 0 .75-1v-3a1.055 1.055 0 0 0-.75-1 1.055 1.055 0 0 0 .75-1v-3A1.055 1.055 0 0 0 38 17.937h-4a1.055 1.055 0 0 0-1 .75 1.055 1.055 0 0 0-1-.75h-4a1.055 1.055 0 0 0-1 .75 1.055 1.055 0 0 0-1-.75h-4a1.055 1.055 0 0 0-1 .75 1.055 1.055 0 0 0-1-.75h-4a1.055 1.055 0 0 0-1 .75 1.055 1.055 0 0 0-1-.75h-4a1.055 1.055 0 0 0-.094 0zM15 22.313a1.055 1.055 0 0 0 .688.687 1.055 1.055 0 0 0-.688.688 1.055 1.055 0 0 0-.688-.688 1.055 1.055 0 0 0 .688-.688zm6 0a1.055 1.055 0 0 0 .688.687 1.055 1.055 0 0 0-.688.688 1.055 1.055 0 0 0-.688-.688 1.055 1.055 0 0 0 .688-.688zm6 0a1.055 1.055 0 0 0 .688.687 1.055 1.055 0 0 0-.688.688 1.055 1.055 0 0 0-.688-.688 1.055 1.055 0 0 0 .688-.688zm6 0a1.055 1.055 0 0 0 .688.687 1.055 1.055 0 0 0-.688.688 1.055 1.055 0 0 0-.688-.688 1.055 1.055 0 0 0 .688-.688zm-18 5a1.055 1.055 0 0 0 .688.687 1.055 1.055 0 0 0-.688.688 1.055 1.055 0 0 0-.688-.688 1.055 1.055 0 0 0 .688-.688zm6 0a1.055 1.055 0 0 0 .688.687 1.055 1.055 0 0 0-.688.688 1.055 1.055 0 0 0-.688-.688 1.055 1.055 0 0 0 .688-.688zm6 0a1.055 1.055 0 0 0 .688.687 1.055 1.055 0 0 0-.688.688 1.055 1.055 0 0 0-.688-.688 1.055 1.055 0 0 0 .688-.688zm6 0a1.055 1.055 0 0 0 .688.687 1.055 1.055 0 0 0-.688.688 1.055 1.055 0 0 0-.688-.688 1.055 1.055 0 0 0 .688-.688zm-12 5a1.055 1.055 0 0 0 .53.624H20.5a1.055 1.055 0 0 0 .5-.624zm6 0a1.055 1.055 0 0 0 .53.624H26.5a1.055 1.055 0 0 0 .5-.624z" opacity=".07" color="#000" overflow="visible"/><rect width="43" height="34" rx=".75" ry=".75" x="2.5" y="9.5" opacity=".3" fill="none" stroke="url(#j)" stroke-linecap="round" stroke-linejoin="round"/><rect width="45" height="36" rx="1.5" ry="1.5" x="1.5" y="8.5" opacity=".5" color="#000" fill="none" stroke="#1c2c38" stroke-linecap="round" stroke-linejoin="round" overflow="visible"/><path d="M10 19v3h4v-3h-4zm6 0v3h4v-3h-4zm6 0v3h4v-3h-4zm6 0v3h4v-3h-4zm6 0v3h4v-3h-4zm-24 5v3h4v-3h-4zm6 0v3h4v-3h-4zm6 0v3h4v-3h-4zm6 0v3h4v-3h-4zm6 0v3h4v-3h-4zm-24 5v3h4v-3h-4zm6 0v3h4v-3h-4zm6 0v3h4v-3h-4zm6 0v3h4v-3h-4zm6 0v3h4v-3h-4zm-18 5v3h16v-3H16z" color="#000" overflow="visible" opacity=".15"/><path d="M10 18v3h4v-3h-4zm6 0v3h4v-3h-4zm6 0v3h4v-3h-4zm6 0v3h4v-3h-4zm6 0v3h4v-3h-4zm-24 5v3h4v-3h-4zm6 0v3h4v-3h-4zm6 0v3h4v-3h-4zm6 0v3h4v-3h-4zm6 0v3h4v-3h-4zm-24 5v3h4v-3h-4zm6 0v3h4v-3h-4zm6 0v3h4v-3h-4zm6 0v3h4v-3h-4zm6 0v3h4v-3h-4zm-18 5v3h16v-3H16z" color="#000" fill="url(#k)" overflow="visible"/></svg>
